X:2874
T:Polska 
T:ur 75 polskor från Uppland och Södermanland (nr 43)
B:75 polskor från Uppland och Södermanland, nr 43
B:Jämför [[http://www.smus.se/earkiv/fmk/browselarge.php?lang=sw&katalogid=M+29&bildnr=00027|SMUS - katalog M29 bild 27]] nr 5 ur [[Notböcker/AP Roos notbok]]
B:Jämför [[http://www.smus.se/earkiv/fmk/browselarge.php?lang=sw&katalogid=Ma+6&bildnr=00130|SMUS - katalog Ma6 bild 130]] efter [[Personer/Petter Dufva]]
N:[[http://www.stefanlinden.se/S/L/Bagge%2075%20p%20fr%20Up%20o%20So.pdf|Notboken som pdf]]
M:3/4
R:Polska
O:Uppland / Södermanland
Z:Nils L
N:Se även [[Musik/2562|+]] och [[Musik/2284|+]]
M:3/4
L:1/8
K:Dm
!p!(a/g/f/e/ .d).d .^c.c | .d.d .e.e .f.f | (a/g/f/e/ .d).d .^c.c | A>^c (e2 d)z ::
!f!a>f a>f a>f | g>a b2 g2 | g>e g>e g>e | f>g a2 f2 |
(a/g/f/e/ .d).d .^c.c | .d.d .e.e .f.f | (a/g/f/e/ .d).d (^c/A/=B/c/) | (e2 d2) z2 :|
(:musicend:)
(:music:)
